X:1
T:Title
%%score 1 2 3
L:1/8
M:2/2
K:C
V:1 treble nm="Part_1"
V:2 treble-8 nm="Part_2"
V:3 treble-8 nm="Part_3"
V:1
 A8 | G8 | A8 | B4 c4 | d8 | c4 A4- | A4 B4 | c4 A4- | A4 G4 | A8 | z8 | E4 A4- | A4 G4- | G4 G4- | %14
 G4 E4 | E8 | D8 | D4 C4 | D8 | z8 | D8 | C4 E4- | E4 F4 | G4 A4- | A4 G4 | E4 F4 | G4 E4- | %27
 E4 D4 | E8 |] %29
V:2
 d8 | B8 | A8 | G8 | G4 B4 | c8 | z4 G4 | A4 F4 | G8 | D8- | D8 | C8 | c4 d4 | B4 c4- | c4 B4- | %15
 B4 G4 | A4 A4- | A4 G4 | A8- | A8 | z4 B4 | c8 | B4 c4 | B4 A4 | d4 e4 | c4 c4- | c4 B4- | B4 A4 | %28
 B8 |] %29
V:3
 D8 | E8 | F4 D4 | d8 | B4 G4 | A8 | d8 | A4 c4 | B8 | A8 | F4 D4 | G8 | F6 D2 | E4 C4- | C4 E4 | %15
 G8 | D4 F4 | E8 | D8- | D8 | F4 G4 | A8 | G4 A4 | E4 F4 | F4 G4 | A8 | G8 | F8 | E8 |] %29

